X:261
T:Young Roger of the Vale - Fone
%%VWML:SBG-1-2-790-0
F:http://www.vwml.org/record/SBG/1/2/790
Z:Original Sibelius transcriptions by M. & S. Graebe
L:1/4
M:4/4
I:linebreak $
K:C
V:1 treble nm="P1"
V:2 treble 
V:1
 G | c G E C | A G z G | c A d B | c3 G | c G E C | A G z G |$ (3A B c d B | c3 c | e c c e | %10
 f g/4f/4e/4f/4 g3/2 f/ | e c f/e/d/c/ |$ c B z c |[M:6/8] c c/ c/B/A/ | G F/ E G/ | A/B/c/ d B/ | %16
[M:4/4] c3 G/ G/ | A d c B | c3 x | %19
V:2
 x | x4 | x4 | x4 | x4 | x4 | x4 |$ x4 | x4 | x4 | x4 | x2 f/e/ d |$ x4 |[M:6/8] x3 | x3 | x3 | %16
[M:4/4] x4 | x4 | x4 | %19
T:Young Roger of the Vale - Kidson
F:http://www.vwml.org/record/SBG/1/2/790
Z:Original Sibelius transcriptions by M. & S. Graebe
M:6/8
I:linebreak $
K:D
V:1 treble nm="P1"
V:1
 A | d2 F FG A | B3 A2 c | d2 B e2 c | (d3 d2) A | d2 F FG A | B3 A2 c |$ d2 B e2 c | (d3 d2) d | %9
 f2 f d2 f | g3 f2 e | d B2 e2 d | (c3 c2) d |$ c2 =c B2 A | G2 G F2 F | E2 E e2 d | c3 B2 A | %17
 d2 F A2 A | (D3 D2) x | %19